icons-rebrand/svg/active-speaker-lock-regular.svg

<svg width="32" height="32" viewBox="0 0 32 32" fill="none" xmlns="http://www.w3.org/2000/svg">
<path d="M10 13.25H9.75V12C9.75 11.2706 9.46027 10.5712 8.94454 10.0554C8.42882 9.53972 7.72935 9.24999 7 9.24999C6.27065 9.24999 5.57118 9.53972 5.05546 10.0554C4.53973 10.5712 4.25 11.2706 4.25 12V13.25H4C3.53603 13.2505 3.09122 13.4351 2.76315 13.7631C2.43507 14.0912 2.25053 14.536 2.25 15V19C2.25053 19.464 2.43507 19.9088 2.76315 20.2368C3.09122 20.5649 3.53603 20.7495 4 20.75H10C10.464 20.7495 10.9088 20.5649 11.2369 20.2368C11.5649 19.9088 11.7495 19.464 11.75 19V15C11.7492 14.5361 11.5646 14.0914 11.2366 13.7634C10.9085 13.4354 10.4639 13.2508 10 13.25ZM5.75 12C5.75 11.6685 5.8817 11.3505 6.11612 11.1161C6.35054 10.8817 6.66848 10.75 7 10.75C7.33152 10.75 7.64946 10.8817 7.88388 11.1161C8.1183 11.3505 8.25 11.6685 8.25 12V13.25H5.75V12ZM10.25 19C10.25 19.0663 10.2237 19.1299 10.1768 19.1768C10.1299 19.2236 10.0663 19.25 10 19.25H4C3.9337 19.25 3.87011 19.2236 3.82322 19.1768C3.77634 19.1299 3.75 19.0663 3.75 19V15C3.75 14.9337 3.77634 14.8701 3.82322 14.8232C3.87011 14.7763 3.9337 14.75 4 14.75H10C10.0663 14.75 10.1299 14.7763 10.1768 14.8232C10.2237 14.8701 10.25 14.9337 10.25 15V19ZM17 21.75C16.8525 21.7503 16.7083 21.7071 16.5852 21.6258C16.4622 21.5445 16.3658 21.4288 16.3082 21.2931C16.2505 21.1573 16.2342 21.0076 16.2612 20.8626C16.2882 20.7177 16.3574 20.5839 16.46 20.478C17.0213 19.898 17.466 19.2156 17.77 18.468C18.4105 16.885 18.4105 15.115 17.77 13.532C17.4656 12.7845 17.0209 12.1023 16.46 11.522C16.3561 11.4156 16.2863 11.2806 16.2594 11.1343C16.2324 10.9881 16.2497 10.8371 16.3089 10.7006C16.3681 10.5642 16.4666 10.4485 16.5918 10.3682C16.717 10.288 16.8633 10.2468 17.012 10.25C17.1105 10.2515 17.2078 10.2724 17.2982 10.3116C17.3886 10.3507 17.4704 10.4072 17.539 10.478C18.2324 11.1957 18.782 12.0396 19.158 12.964C19.9469 14.9111 19.9469 17.0889 19.158 19.036C18.7819 19.9603 18.232 20.8039 17.538 21.521C17.4684 21.5934 17.3848 21.651 17.2924 21.6904C17.1999 21.7297 17.1005 21.75 17 21.75ZM24 28.75C23.8514 28.7501 23.7062 28.706 23.5827 28.6234C23.4592 28.5408 23.363 28.4234 23.3064 28.2861C23.2497 28.1487 23.2351 27.9977 23.2644 27.852C23.2937 27.7064 23.3656 27.5727 23.471 27.468C24.9868 25.9678 26.1898 24.1817 27.0102 22.2131C27.8305 20.2445 28.2519 18.1327 28.25 16C28.2519 13.8672 27.8304 11.7553 27.0099 9.78671C26.1893 7.81811 24.9861 6.03201 23.47 4.53199C23.4001 4.46245 23.3445 4.37982 23.3065 4.28882C23.2685 4.19782 23.2488 4.10022 23.2486 4.00161C23.2483 3.90299 23.2674 3.80529 23.3049 3.71407C23.3424 3.62285 23.3975 3.53991 23.467 3.46999C23.6074 3.32876 23.7982 3.2491 23.9974 3.24854C24.096 3.24826 24.1937 3.26741 24.2849 3.30489C24.3761 3.34237 24.4591 3.39745 24.529 3.46699C26.185 5.10691 27.4996 7.0588 28.3967 9.20983C29.2939 11.3609 29.7558 13.6684 29.7558 15.999C29.7558 18.3296 29.2939 20.6371 28.3967 22.7881C27.4996 24.9392 26.185 26.8911 24.529 28.531C24.4595 28.6007 24.3769 28.656 24.2859 28.6936C24.195 28.7312 24.0974 28.7504 23.999 28.75H24Z" fill="#0F0F0F"/>
<path d="M20.4998 25.7501C20.3532 25.7502 20.2098 25.7074 20.0873 25.6269C19.9647 25.5465 19.8685 25.4319 19.8104 25.2973C19.7523 25.1627 19.7349 25.014 19.7604 24.8697C19.7859 24.7253 19.8531 24.5916 19.9538 24.4851C20.9874 23.3767 21.8048 22.0848 22.3638 20.6761C23.5446 17.6699 23.5446 14.3283 22.3638 11.3221C21.8052 9.91288 20.9874 8.6209 19.9528 7.51307C19.8834 7.44167 19.829 7.35718 19.7926 7.26452C19.7562 7.17186 19.7386 7.07289 19.7409 6.97337C19.7432 6.87386 19.7652 6.77579 19.8058 6.68489C19.8464 6.59399 19.9046 6.51206 19.9772 6.4439C20.0497 6.37574 20.1351 6.3227 20.2283 6.28788C20.3216 6.25305 20.4208 6.23714 20.5203 6.24106C20.6198 6.24499 20.7174 6.26867 20.8077 6.31073C20.8979 6.3528 20.9788 6.4124 21.0458 6.48607C21.3708 6.83207 21.6758 7.19507 21.9618 7.57307C22.7018 8.55307 23.3048 9.62807 23.7578 10.7681C25.0794 14.1302 25.0794 17.868 23.7578 21.2301C23.3078 22.3659 22.7078 23.4364 21.9738 24.4131C21.6848 24.7971 21.3748 25.1641 21.0448 25.5141C20.9748 25.5884 20.8903 25.6477 20.7966 25.6883C20.7029 25.7289 20.6019 25.7499 20.4998 25.7501Z" fill="#0F0F0F"/>
</svg>

<svg width="32" height="32" viewBox="0 0 32 32" fill="none" xmlns="http://www.w3.org/2000/svg"><path d="M10 13.25h-.25V12a2.75 2.75 0 0 0-5.5 0v1.25H4A1.752 1.752 0 0 0 2.25 15v4A1.752 1.752 0 0 0 4 20.75h6A1.752 1.752 0 0 0 11.75 19v-4A1.753 1.753 0 0 0 10 13.25zM5.75 12a1.25 1.25 0 1 1 2.5 0v1.25h-2.5V12zm4.5 7a.25.25 0 0 1-.25.25H4a.25.25 0 0 1-.25-.25v-4a.25.25 0 0 1 .25-.25h6a.25.25 0 0 1 .25.25v4zM17 21.75a.75.75 0 0 1-.54-1.272 6.306 6.306 0 0 0 1.31-2.01 6.58 6.58 0 0 0 0-4.936 6.324 6.324 0 0 0-1.31-2.01.749.749 0 0 1 .552-1.272.75.75 0 0 1 .527.228 7.817 7.817 0 0 1 1.619 2.486 8.085 8.085 0 0 1 0 6.072 7.802 7.802 0 0 1-1.62 2.485.746.746 0 0 1-.538.229zM24 28.75a.75.75 0 0 1-.529-1.282A16.114 16.114 0 0 0 28.25 16a16.112 16.112 0 0 0-4.78-11.468.75.75 0 1 1 1.059-1.065 17.637 17.637 0 0 1 0 25.064.744.744 0 0 1-.53.219z" fill="#0F0F0F"/><path d="M20.5 25.75a.75.75 0 0 1-.546-1.265 12.16 12.16 0 0 0 2.41-3.809 12.792 12.792 0 0 0 0-9.354 12.128 12.128 0 0 0-2.411-3.809.75.75 0 1 1 1.093-1.027c.325.346.63.709.916 1.087.74.98 1.343 2.055 1.796 3.195a14.298 14.298 0 0 1 0 10.462 13.693 13.693 0 0 1-1.784 3.183c-.289.384-.599.751-.929 1.101a.75.75 0 0 1-.545.236z" fill="#0F0F0F"/></svg>
